shared/images/iconfont/59-kb-iconfont-lock-16.svg

<svg height="16" viewBox="0 0 16 16" width="16" xmlns="http://www.w3.org/2000/svg"><path d="m12 5h1.6c.773 0 1.4.93 1.4 1.667v7.333a2 2 0 0 1 -2 2h-10a2 2 0 0 1 -2-2v-7.333c0-.737.627-1.667 1.4-1.667h1.6v-1c0-2.21 1.68-4 4-4s4 1.79 4 4zm-2 0v-1.2c0-.913-1-1.8-1.958-1.8s-2.042.887-2.042 1.8v1.2zm-2 3a1 1 0 0 0 -1 1v3a1 1 0 0 0 2 0v-3a1 1 0 0 0 -1-1z"/></svg>

<svg xmlns="http://www.w3.org/2000/svg" width="16" height="16" viewBox="0 0 16 16">
    <path fill="#000" fill-rule="nonzero" d="M12 5h1.6c.773 0 1.4.93 1.4 1.667V14a2 2 0 0 1-2 2H3a2 2 0 0 1-2-2V6.667C1 5.93 1.627 5 2.4 5H4V4c0-2.21 1.68-4 4-4 2.32 0 4 1.79 4 4v1zm-2 0V3.8C10 2.887 9 2 8.042 2S6 2.887 6 3.8V5h4zM8 8a1 1 0 0 0-1 1v3a1 1 0 0 0 2 0V9a1 1 0 0 0-1-1z"/>
</svg>
